X:1
T:Sabbath, 77.77 D
T:Sabbath, 77.77 D
T:Lowell Mason, 1824
T:Public Domain Courtesy of the Cyber Hymnal™
C:Lowell Mason, 1824
Z:Public Domain
Z:Courtesy of the Cyber Hymnal™
%%score ( 1 2 ) ( 3 4 )
L:1/8
Q:1/4=100
M:3/4
K:G
V:1 treble 
V:2 treble 
V:3 bass 
V:4 bass 
V:1
 [DG]>[GA] | [GB]3 [GB] [Ac][GB] | [FA]4 [DF]>[DG] | [DA]3 [Fc] [GB][DA] | [DG]4 G>[GA] | %5
 [GB]3 [GB] [Ac][GB] | [FA]4 [Ad]>[Ac] | [GB][EG] [DF]2 [^CE]2 | D4 [Bd]>[Ac] | %9
 [GB]3 [Gd] [Fc][GB] | [FA]4 [GB]>[Gc] | [Gd]3 G [Ac][GB] | [FA]4 [Dd]>[Dc] | [DB]3 [Gd] [Fc][GB] | %14
 [FA]4 [GB]>[Gc] | [Gd]G [GB]2 [FA]2 | [DG]4 |] %17
V:2
 x2 | x6 | x6 | x6 | x4 G3/2 x/ | x6 | x6 | x6 | D4 x2 | x6 | x6 | x6 | x6 | x6 | x6 | x G x4 | %16
 x4 |] %17
V:3
 [G,B,]>[G,C] | [G,D]3 [G,D] [F,D][G,D] | [D,D]4 [D,A,]>[D,B,] | [D,C]3 [D,A,] [D,D][D,C] | %4
 [G,B,]4 [G,B,]>[G,C] | [G,D]3 [G,D] [F,D][G,D] | [D,D]4 [F,D]>[F,D] | [G,D][G,B,] A,2 (A,G,) | %8
 [D,F,]4 [D,D]>[F,D] | [G,D]3 [B,D] [A,D][G,D] | [D,D]4 [D,G,]>[D,A,] | [D,B,]3 [E,B,] [F,D][G,D] | %12
 [D,D]4 [D,B,]>[F,A,] | G,3 [B,D] [A,D][G,D] | [D,D]4 G,>[G,A,] | [G,B,][C,E] [D,D]2 [D,C]2 | %16
 [G,B,]4 |] %17
V:4
 x2 | x6 | x6 | x6 | x6 | x6 | x6 | x2 A,2 A,,2 | x6 | x6 | x6 | x6 | x6 | x6 | x4 G,3/2 x/ | x6 | %16
 x4 |] %17

